X:4244
L:1/8
Q:1/2=100
M:4/4
K:G
 ef | g2 G2 G2 Bc | dedc B2 AB | c2 E2 E2 AG | FGAF D2 ef | g2 G2 G2 Bc | dedc B2 AB | c2 E2 AGFE | 
 D2 G2 G2 :: FE | D2 B2 BAGF | E2 c2 c4 | E2 c2 cBAc | e2 d2 B4 | D2 B2 BAGF | E2 c2 c4 | 
 Bgfe dcBG | A4 G2 :: FE | D2 D2 DGFG | E2 E2 E4 | F2 F2 FDEF | GFGA B4 | D2 D2 DGFG | E2 E2 E4 | 
 F2 F2 FDEF | G2 G2 G2 :: GA | B2 B2 BDGA | B2 B2 B2 GA | Bgfe dcBG | AGAB A2 GA | B2 B2 BGAB | 
 c2 c2 c2 Bc | Bgfe dcBG | A4 G2 :|

